imgs/plurk.svg

<svg width="190" height="158" viewBox="0 0 190 158" fill="none" xmlns="http://www.w3.org/2000/svg">
<path d="M0.559814 54.875C2.32508 51.1029 5.18501 47.6266 9.78555 47.8583C8.57255 44.313 8.51338 40.7973 10.9049 37.7204C17.7687 28.8743 31.9944 36.6947 27.3248 47.8682C26.7282 49.2932 24.4057 50.6985 28.0694 51.1817C28.8928 51.2902 28.4787 51.0289 28.6414 50.6541C32.3494 42.3061 42.7734 27.3655 52.8423 37.2865C64.425 48.7015 57.7979 84.061 42.4036 89.8894C28.9422 94.9879 24.6128 77.9862 24.8594 68.0356C23.4343 66.7733 21.9304 65.5406 20.673 64.1057C19.7904 63.0948 19.4945 61.2655 18.4837 62.2812C15.8013 64.9735 14.2332 67.3551 9.65735 67.0346C5.38225 66.7338 2.03909 63.4992 0.559814 59.6777V54.8799V54.875ZM27.8722 69.6381C28.38 80.8165 37.9213 84.5887 44.6323 74.7712C48.9074 68.5139 50.4952 58.6274 48.5869 51.3198C45.5593 39.7272 35.6827 42.7696 31.1956 51.3691C35.2636 51.162 38.089 49.3327 40.584 53.7902C42.4331 57.1038 43.1728 63.0455 40.9539 66.2901C38.0545 70.5306 32.3987 70.6243 27.8771 69.6332L27.8722 69.6381Z" fill="#6FE9B8"/>
<path d="M189.083 48.6864C190.434 50.0424 188.566 54.3816 187.757 55.856C185.878 59.283 182.535 62.1774 180.006 65.1064C182.555 80.6486 180.637 96.0675 174.473 110.486C173.733 112.211 170.987 116.555 170.78 117.892C170.523 119.568 173.492 121.338 174.404 122.606C176.302 125.239 176.371 127.882 174.715 130.668C174.024 131.826 164.67 141.974 163.886 141.979C163.615 141.979 160.943 138.498 159.236 140.658C157.205 143.232 162.304 144.371 159.902 145.751C157.501 147.132 154.335 146.422 152.141 144.874C150.859 143.971 150.233 142.319 148.418 142.734C141.732 146.959 134.912 150.914 127.363 153.444C104.227 161.19 79.3754 158.029 58.774 145.234C57.3293 144.336 52.497 140.47 51.5897 140.229C49.2672 139.612 48.2515 141.797 46.5256 142.739C37.8275 147.502 33.513 134.82 28.2862 130.293C27.941 129.001 32.4775 127.665 30.4952 125.155C28.8434 123.069 25.7961 126.856 25.2981 126.481C24.7162 124.391 24.1738 122.995 25.0022 120.84C26.0278 118.168 30.3128 116.62 30.1156 113.755C30.0219 112.404 27.4282 107.478 26.7675 105.638C23.9273 97.7884 22.3494 89.4651 22.3494 81.0874L25.7123 91.1909C32.4577 104.105 44.7061 102.251 53.3599 92.3546C64.987 79.051 70.0313 50.284 60.6576 34.8404C57.275 29.2685 51.8954 25.8859 45.2239 27.7498C43.148 28.3267 41.3926 30.0673 39.3265 29.9736C47.5858 20.2992 57.3737 12.1435 69.0895 6.95616C107.319 -9.97658 152.2 5.59523 171.894 42.0889C172.589 43.3808 175.227 49.7071 175.735 50.0622C176.544 50.6292 178.383 50.5257 179.394 50.4517C181.672 50.2841 187.772 47.3797 189.093 48.7012L189.083 48.6864Z" fill="#6FE9B8"/>
</svg>

<?xml version="1.0" encoding="UTF-8"?>
<svg id="_圖層_1" data-name="圖層_1" xmlns="http://www.w3.org/2000/svg" version="1.1" viewBox="0 0 190 158">
  <!-- Generator: Adobe Illustrator 29.5.1, SVG Export Plug-In . SVG Version: 2.1.0 Build 141)  -->
  <defs>
    <style>
      .st0 {
        fill: #299ea7;
      }
    </style>
  </defs>
  <path class="st0" d="M.56,54.88c1.77-3.77,4.63-7.25,9.23-7.02-1.21-3.55-1.27-7.06,1.12-10.14,6.86-8.85,21.09-1.03,16.42,10.15-.6,1.43-2.92,2.83.74,3.31.82.11.41-.15.57-.53,3.71-8.35,14.13-23.29,24.2-13.37,11.58,11.42,4.96,46.77-10.44,52.6-13.46,5.1-17.79-11.9-17.54-21.85-1.43-1.26-2.93-2.49-4.19-3.93-.88-1.01-1.18-2.84-2.19-1.82-2.68,2.69-4.25,5.07-8.83,4.75-4.28-.3-7.62-3.54-9.1-7.36v-4.8h0ZM27.87,69.64c.51,11.18,10.05,14.95,16.76,5.13,4.28-6.26,5.86-16.14,3.95-23.45-3.03-11.59-12.9-8.55-17.39.05,4.07-.21,6.89-2.04,9.39,2.42,1.85,3.31,2.59,9.26.37,12.5-2.9,4.24-8.56,4.33-13.08,3.34h0Z"/>
  <path class="st0" d="M189.08,48.69c1.35,1.36-.52,5.7-1.33,7.17-1.88,3.43-5.22,6.32-7.75,9.25,2.55,15.54.63,30.96-5.53,45.38-.74,1.72-3.49,6.07-3.69,7.41-.26,1.68,2.71,3.45,3.62,4.71,1.9,2.63,1.97,5.28.31,8.06-.69,1.16-10.04,11.31-10.83,11.31-.27,0-2.94-3.48-4.65-1.32-2.03,2.57,3.07,3.71.67,5.09-2.4,1.38-5.57.67-7.76-.88-1.28-.9-1.91-2.55-3.72-2.14-6.69,4.23-13.51,8.18-21.06,10.71-23.14,7.75-47.99,4.59-68.59-8.21-1.44-.9-6.28-4.76-7.18-5-2.32-.62-3.34,1.57-5.06,2.51-8.7,4.76-13.01-7.92-18.24-12.45-.35-1.29,4.19-2.63,2.21-5.14-1.65-2.09-4.7,1.7-5.2,1.33-.58-2.09-1.12-3.49-.3-5.64,1.03-2.67,5.31-4.22,5.11-7.08-.09-1.35-2.69-6.28-3.35-8.12-2.84-7.85-4.42-16.17-4.42-24.55l3.36,10.1c6.75,12.91,18.99,11.06,27.65,1.16,11.63-13.3,16.67-42.07,7.3-57.51-3.38-5.57-8.76-8.95-15.43-7.09-2.08.58-3.83,2.32-5.9,2.22,8.26-9.67,18.05-17.83,29.76-23.02,38.23-16.93,83.11-1.36,102.8,35.13.7,1.29,3.33,7.62,3.84,7.97.81.57,2.65.46,3.66.39,2.28-.17,8.38-3.07,9.7-1.75h-.01Z"/>
</svg>
